svgs/sharp-solid/lock-keyhole-open.svg

<svg xmlns="http://www.w3.org/2000/svg" viewBox="0 0 576 512"><!--! Font Awesome Pro 6.4.2 by @fontawesome - https://fontawesome.com License - https://fontawesome.com/license (Commercial License) Copyright 2023 Fonticons, Inc. --><path d="M432 64c-44.2 0-80 35.8-80 80v48h96V512H0V192H288V144C288 64.5 352.5 0 432 0s144 64.5 144 144v48 32H512V192 144c0-44.2-35.8-80-80-80zM256 384h32V320H256 192 160v64h32 64z"/></svg>

<svg xmlns="http://www.w3.org/2000/svg" viewBox="0 0 576 512"><!--! Font Awesome Pro 6.6.0 by @fontawesome - https://fontawesome.com License - https://fontawesome.com/license (Commercial License) Copyright 2024 Fonticons, Inc. --><path d="M432 64c-44.2 0-80 35.8-80 80l0 48 96 0 0 320L0 512 0 192l288 0 0-48C288 64.5 352.5 0 432 0s144 64.5 144 144l0 48 0 32-64 0 0-32 0-48c0-44.2-35.8-80-80-80zM256 384l32 0 0-64-32 0-64 0-32 0 0 64 32 0 64 0z"/></svg>
